src/components/icons/kontakter_green.svg

<?xml version="1.0" encoding="UTF-8"?>
<svg width="54px" height="56px" viewBox="0 0 54 56" version="1.1" xmlns="http://www.w3.org/2000/svg" xmlns:xlink="http://www.w3.org/1999/xlink">
    <!-- Generator: Sketch 50.2 (55047) - http://www.bohemiancoding.com/sketch -->
    <title>Page 1</title>
    <desc>Created with Sketch.</desc>
    <defs></defs>
    <g id="Page-1" stroke="none" stroke-width="1" fill="none" fill-rule="evenodd">
        <g id="contacts" transform="translate(-161.000000, -48.000000)" fill="#6EC81E">
            <g id="Page-1" transform="translate(161.000000, 48.000000)">
                <path d="M38.6336481,47.543686 L46.5074474,51.3839119 L44.1554984,43.3036237 L45.6859039,42.8575142 L46.9025066,43.8916976 L45.6859039,42.8575142 L44.1554984,43.3036237 C44.0033108,42.7851842 44.1195839,42.2330507 44.4706479,41.8215337 C47.9503114,37.7256821 50.0499613,32.4388573 50.0513081,26.6416796 C50.0499613,20.1625338 47.4308983,14.310547 43.189399,10.0623982 C38.9443083,5.81829267 33.096983,3.19644447 26.6225013,3.19554596 C20.1471218,3.19644447 14.3006944,5.81829267 10.0556036,10.0623982 C5.81410433,14.310547 3.19459242,20.1625338 3.19459242,26.6416796 C3.19459242,33.1208253 5.81410433,38.9723628 10.0556036,43.2205117 C14.3006944,47.465965 20.1471218,50.0882624 26.6225013,50.0882624 C30.4379652,50.0882624 34.026719,49.1717836 37.2100881,47.5540188 C37.4367982,47.439459 37.6846081,47.3815052 37.9337648,47.3815052 C38.172596,47.3815052 38.4109783,47.4363142 38.6336481,47.543686 M48.349411,55.8387177 L37.9346626,50.7576514 C34.5003411,52.3740684 30.6655732,53.2833591 26.6225013,53.2833591 C11.918667,53.2824606 0.00179572367,41.3561062 0,26.6416796 C0.00179572367,11.9290499 11.918667,0.00134776295 26.6225013,0 C41.3254378,0.00134776295 53.2432069,11.9290499 53.2459005,26.6416796 C53.2476963,32.9056325 51.0753195,38.674058 47.4546917,43.2205117 L50.5823934,53.9549943 C50.7583743,54.5614877 50.5612936,55.2165005 50.077795,55.6235249 C49.785541,55.8724118 49.4192134,56 49.0492943,56 C48.8104631,56 48.5711829,55.9474372 48.349411,55.8387177" id="Fill-1"></path>
            </g>
        </g>
    </g>
</svg>

<svg width="54" height="56" xmlns="http://www.w3.org/2000/svg"><path d="M38.634 47.544l7.873 3.84-2.352-8.08 1.53-.446 1.218 1.034-1.217-1.034-1.53.446a1.584 1.584 0 0 1 .315-1.482 23.352 23.352 0 0 0 5.58-15.18 23.382 23.382 0 0 0-6.862-16.58c-4.245-4.244-10.092-6.866-16.566-6.866-6.476 0-12.322 2.622-16.567 6.866a23.375 23.375 0 0 0-6.861 16.58c0 6.479 2.62 12.33 6.86 16.579 4.246 4.245 10.092 6.867 16.568 6.867a23.28 23.28 0 0 0 10.587-2.534 1.604 1.604 0 0 1 1.424-.01m9.715 8.295l-10.414-5.081a26.499 26.499 0 0 1-11.312 2.525C11.919 53.283.002 41.356 0 26.642.002 11.929 11.919.002 26.623 0c14.702.001 26.62 11.929 26.623 26.642a26.528 26.528 0 0 1-5.791 16.579l3.127 10.734a1.6 1.6 0 0 1-2.233 1.884" fill="#6EC81E" fill-rule="evenodd"/></svg>
